app/images/svg/pin.svg

<svg width="30" height="31" viewBox="0 0 30 31" fill="none" xmlns="http://www.w3.org/2000/svg">
<g clip-path="url(#clip0_342_6050)">
<path d="M14.2442 1.30038L14.2412 1.30066C11.5029 1.55061 9.25931 2.55773 7.42816 4.34064C4.88968 6.81224 3.78083 10.3529 4.5019 13.5684C4.78726 14.8128 5.2201 15.933 5.8711 17.0784C6.05882 17.4084 8.07612 20.4206 10.0953 23.4079C11.1011 24.8959 12.1021 26.3701 12.8669 27.4881C13.2494 28.0472 13.5723 28.5166 13.8072 28.854C13.9247 29.0228 14.0195 29.1576 14.0883 29.2537C14.1228 29.3018 14.1499 29.339 14.1696 29.3653C14.1836 29.3841 14.1904 29.3925 14.1919 29.3945C14.6601 29.8753 15.3351 29.8768 15.8045 29.3989C15.8071 29.3955 15.8113 29.39 15.8173 29.3818C15.8328 29.3606 15.8548 29.33 15.8833 29.2898C15.9401 29.2096 16.0201 29.0953 16.1203 28.9509C16.3206 28.6624 16.6002 28.2565 16.935 27.7687C17.6044 26.7932 18.4931 25.4916 19.4066 24.1493C21.2354 21.4624 23.1586 18.62 23.6245 17.8999L23.625 17.8992C25.0728 15.6728 25.7912 13.3595 25.7015 11.3454C25.6275 9.71445 25.2992 8.43529 24.5978 7.08047L24.5976 7.08009C24.0405 6.00073 23.436 5.18137 22.5731 4.34106C20.9555 2.77165 18.9303 1.76046 16.6753 1.40637C16.417 1.3667 15.9178 1.32879 15.4164 1.30676C14.9103 1.28452 14.4439 1.28042 14.2442 1.30038ZM5.1388 13.6371L5.13878 13.637C4.6436 11.5954 4.88545 9.55129 5.85953 7.4893C7.24241 4.54749 10.3542 2.33562 13.6408 1.94523C14.7125 1.81629 15.5226 1.82201 16.5735 1.97485C19.7921 2.43039 22.7888 4.61276 24.1412 7.48914C24.8186 8.92605 25.0945 10.1293 25.0945 11.6718C25.0945 12.392 25.0696 12.6976 24.9342 13.3153C24.6321 14.7207 24.1355 15.9326 23.2967 17.292C22.9269 17.8958 20.9415 20.8387 19.0469 23.6185C18.0975 25.0116 17.1679 26.3679 16.4704 27.3763C16.1217 27.8803 15.8305 28.2983 15.6235 28.5906C15.5202 28.7365 15.4367 28.8528 15.3772 28.9333C15.3478 28.973 15.322 29.0071 15.3016 29.0326C15.292 29.0445 15.2795 29.0598 15.2662 29.0742C15.2604 29.0804 15.2475 29.0941 15.2305 29.1086C15.2224 29.1155 15.2052 29.1296 15.1813 29.1439L15.1804 29.1444C15.1663 29.1529 15.0979 29.194 15.0004 29.194C14.9029 29.194 14.8345 29.1529 14.8204 29.1444L14.8195 29.1439C14.7956 29.1296 14.7784 29.1155 14.7704 29.1086C14.7533 29.0941 14.7404 29.0804 14.7346 29.0742C14.7213 29.0598 14.7088 29.0445 14.6992 29.0326C14.6788 29.0071 14.653 28.973 14.6236 28.9333C14.5641 28.8528 14.4806 28.7365 14.3773 28.5906C14.1704 28.2983 13.8791 27.8803 13.5304 27.3763C12.8329 26.3679 11.9033 25.0116 10.9539 23.6185C9.05931 20.8387 7.0739 17.8957 6.70414 17.2919C5.92014 16.0158 5.45326 14.9324 5.1388 13.6371Z" stroke="#666981" stroke-width="0.7"/>
<path d="M14.004 6.08088C12.0235 6.42888 10.3888 7.71251 9.59188 9.53242C8.8536 11.2268 9.04696 13.2578 10.0841 14.8039C10.922 16.0418 12.0997 16.8577 13.6524 17.2741C14.1915 17.4168 15.8087 17.4168 16.3477 17.2741C17.9005 16.8577 19.0782 16.0418 19.9161 14.8039C20.7364 13.5887 21.0411 12.0255 20.7423 10.6164C20.3145 8.58538 18.838 6.95375 16.8341 6.28626C15.9845 6.00671 14.8829 5.92684 14.004 6.08088ZM15.5684 7.31316C16.5528 7.44438 17.3966 7.83232 18.1055 8.48269C19.5763 9.83478 19.9688 11.8715 19.1016 13.6229C18.5274 14.7753 17.4727 15.6311 16.1895 15.9905C15.5391 16.1731 14.461 16.1731 13.8106 15.9905C11.543 15.3572 10.1134 13.1893 10.5118 10.9815C10.8516 9.08172 12.4161 7.587 14.3555 7.31887C14.8888 7.2447 15.047 7.2447 15.5684 7.31316Z" fill="#666981"/>
</g>
<defs>
<clipPath id="clip0_342_6050">
<rect width="30" height="29.2097" fill="white" transform="translate(0 0.917969)"/>
</clipPath>
</defs>
</svg>

<svg width="30" height="31" viewBox="0 0 30 31" fill="none" xmlns="http://www.w3.org/2000/svg"><g clip-path="url(#clip0_342_6050)"><path d="M14.244 1.3h-.003c-2.738.25-4.982 1.258-6.813 3.04-2.538 2.472-3.647 6.013-2.926 9.228a12.633 12.633 0 001.37 3.51c.187.33 2.204 3.343 4.223 6.33a944.465 944.465 0 002.772 4.08 218.434 218.434 0 001.221 1.766l.082.111.022.03c.468.48 1.143.482 1.613.004a1208.599 1208.599 0 003.602-5.25c1.828-2.687 3.752-5.529 4.218-6.25h0c1.448-2.226 2.166-4.54 2.076-6.554-.073-1.63-.402-2.91-1.103-4.265h0a10.039 10.039 0 00-2.025-2.739 10.8 10.8 0 00-5.898-2.935c-.258-.04-.757-.077-1.259-.1-.506-.021-.972-.026-1.172-.006zM5.14 13.637h0c-.495-2.042-.254-4.086.72-6.148 1.383-2.942 4.495-5.153 7.782-5.544a10.22 10.22 0 012.932.03c3.22.455 6.216 2.638 7.568 5.514.678 1.437.954 2.64.954 4.183 0 .72-.025 1.026-.16 1.643-.303 1.406-.8 2.618-1.638 3.977-.37.604-2.355 3.547-4.25 6.326a703.03 703.03 0 01-2.577 3.758c-.348.504-.64.922-.846 1.215a22.378 22.378 0 01-.322.442.828.828 0 01-.072.076.366.366 0 01-.049.035h0a.352.352 0 01-.36 0h-.002a.356.356 0 01-.084-.07 3.567 3.567 0 01-.111-.14c-.06-.081-.143-.198-.247-.343-.207-.293-.498-.71-.847-1.215a703.03 703.03 0 01-2.576-3.758c-1.895-2.78-3.88-5.722-4.25-6.326-.784-1.276-1.25-2.36-1.565-3.655z" stroke="#666981" stroke-width=".7"/><path d="M14.004 6.08a5.893 5.893 0 00-4.412 3.452c-.738 1.695-.545 3.726.492 5.272.838 1.238 2.016 2.054 3.568 2.47.54.143 2.157.143 2.696 0 1.553-.416 2.73-1.232 3.568-2.47.82-1.215 1.125-2.779.826-4.188-.428-2.03-1.904-3.662-3.908-4.33a6.257 6.257 0 00-2.83-.205zm1.564 1.233c.985.131 1.829.52 2.537 1.17 1.471 1.352 1.864 3.388.997 5.14-.575 1.152-1.63 2.008-2.913 2.368-.65.182-1.728.182-2.378 0-2.268-.634-3.698-2.802-3.3-5.01.34-1.9 1.905-3.394 3.845-3.662.533-.074.691-.074 1.212-.006z" fill="#666981"/></g><defs><clipPath id="clip0_342_6050"><path fill="#fff" transform="translate(0 .918)" d="M0 0h30v29.21H0z"/></clipPath></defs></svg>
